!!!OTL: Karfreitagslied (Band 1), S. 28
!!!id: P0782
**kern
*clefG2
*k[f#c#]
*D:
{8f#
8f#
=1
4e
4d
4d
8e
8e
=2
4f#
8g
8g
4a}
=3
{4f#
=4
4g
8a
8a
4b
4b
=5
8a
8g
4f#
4e}
=6
{4a
=7
8a
8g
4f#
4g
4g
=8
8f#
8e
4d
4e}
=9
{4a
=10
4b
4cc#
4dd
4g
=11
4f#
4e
4d}
==
*-
!!!minrhy: 8
!!!meters: 4/4 ]  ZZ[4
!!!cut: Karfreitagslied (Band 1), S. 28
!!!reg: Lothringen
!!!trd: PINCK, Louis: Verklingende Weisen, Bd 1, Metz 1928
!!!rhy1: XX  X_X_X_XX  X_XXX_
!!!rhy2: X_  X_XXX_X_  XXX_X_
!!!key: P0782  08  D 4/4 ]  ZZ[4
!!!mod: HEPTATONIK IONISCH]  AMBITUS[8
!!!kad: 5221
!!!akz: 2135_4652_5432_6+131_
!!!fot: 'a__b__c__d__
!!!for: 'a__b__c__d__
!!!fok: 'Va_^d_\__^d_
!! PHRAS[AUFTAKTIG]
!!!fkt: geistliche, religiöse Lieder
!! LOTH VKL
!! PR[18] 2K[10] 2G[31] 3K[0] 3G[0] 4A[0] 4Ü[0] 5A[2] 6K[0] 6G[0]
!! 7K[0] 7G[0] 8A[0] MEHR[0] SI[43] ABS[51] SR[41] SP[2]
!! ST[16] 2k[6] 2g[20] 3k[4] 3g[6] 4d[4] 4ü[0] 5d[0] 6k[0] 6g[0]
!! 7k[0] 7g[0] 8d[0] mehr[0] si[39] dm[+4] sr[25] sp[14]
!! 1F[13] 2F[63] 3F[8] 4F[0] LF[0] 2P[6] 3P[10] 4P[0] TRI[0] DF[5] AB[52]
!! TF[0] U3K[0] U3[0] U4[0] U4Ü[0] U5[0] U6K[0] U6[0] U7K[0] U7[2]
!! N1[17] N2K[0] N2[17] N3K[0] N3[13] N4[8] N4Ü[0] N5[25] N6K[0] N6[8]
!!!n7k: 0] N7[6] O1[4] O2K[0] O2[0] O3K[0] O3[0] HÖ[0
